app/dist/common/images/raytron-technology-coltd.svg

<svg height="18" viewBox="0 0 18 18" width="18" xmlns="http://www.w3.org/2000/svg"><path d="m0 0h18v18h-18z" fill="#f0f3fa"/><path d="m13.35 11.46a4.98 4.98 0 0 0 .57-3.37c-.3.77-1.35 1.12-1.92 1.21zm-.35.54h-1.31l-.92-3c.56-.2 1.72-.78 1.84-1.5.13-.72-.46-.9-.77-.9h-.77l-1.54 5.4h-1.83l1.54-6h3.76a5 5 0 0 0 -8 0h3.17l-.35.75h-3.29c-.12.24-.22.49-.3.75h3.59l-.35.75h-3.41c-.04.24-.06.5-.06.75h3.33l-.5.75h-2.78c.02.16.05.32.1.48h2.4l-.28.75h-1.87l.12.27h1.55l-.41.75h-.66a5 5 0 0 0 8 0z" fill="#0b3d72"/></svg>

<!-- by TradingView --><svg width="18" height="18" viewBox="0 0 18 18" xmlns="http://www.w3.org/2000/svg"><path fill="#F0F3FA" d="M0 0h18v18H0z"/><path d="M13.35 11.46a4.98 4.98 0 0 0 .57-3.37c-.3.77-1.35 1.12-1.92 1.21l1.35 2.16ZM13 12h-1.31l-.92-3c.56-.2 1.72-.78 1.84-1.5.13-.72-.46-.9-.77-.9h-.77L9.53 12H7.7l1.54-6H13a5 5 0 0 0-8 0h3.17l-.35.75H4.53c-.12.24-.22.49-.3.75h3.59l-.35.75H4.06c-.04.24-.06.5-.06.75h3.33l-.5.75H4.05c.02.16.05.32.1.48h2.4l-.28.75H4.4l.12.27h1.55l-.41.75H5a5 5 0 0 0 8 0Z" fill="#0B3D72"/></svg>
